X: 1
T: Hills of Glen Orchy
C: Trad. Scotland
O: attr. K.Dunlay
M: 6/8
N: printed page from Barbara McOwen in the Boston Slow Scottish Jam collection
Z: John Chambers 2021-5-21
K: ADor
L: 1/8
"^A"[|] f \
| "Am"ede ABA | ede g2d | "G"BAB GDG | BAB "Em7"d2g \
| "Am"ede ABA | ede g2a | "G"geg "Em7"dBG | "Am"ABA A2 :|
"^B"[|] e \
| "Am"aba age | aga b2a | "G"gag ged | gdg b2g \
| "Am"aba age | aga b2a | "G"geg "Em7"dBG | "Am"ABA A2 ||
"^C"[|] e \
| "Am"aba age | aga "D7"b2a | "G"gag ged | gdg "Em7"b2g \
| "Am"c'c'c' "Em7"bbb | "Am"aaa e2d | "G"ege "Em7"dBG | "Am"ABA A2 |]
